src/lib/packages/icons/src/assets/line/ping-pong.svg

<svg width="24" height="24" viewBox="0 0 24 24" fill="none" xmlns="http://www.w3.org/2000/svg">
<path d="M19 16.25C17.48 16.25 16.25 17.48 16.25 19C16.25 20.52 17.48 21.75 19 21.75C20.52 21.75 21.75 20.52 21.75 19C21.75 17.48 20.52 16.25 19 16.25ZM19 20.25C18.31 20.25 17.75 19.69 17.75 19C17.75 18.31 18.31 17.75 19 17.75C19.69 17.75 20.25 18.31 20.25 19C20.25 19.69 19.69 20.25 19 20.25ZM14.18 16.8C15.27 16.71 16.2 16.33 17.67 14.86L18.65 13.89C20.08 12.46 20.8 10.76 20.75 8.95999C20.7 7.28999 19.95 5.64998 18.65 4.33998C17.35 3.03998 15.71 2.28999 14.03 2.23999C12.22 2.18999 10.53 2.90998 9.10001 4.33998L8.14 5.30998C6.67 6.77998 6.29 7.70997 6.2 8.78997C6.2 8.80997 6.2 8.81998 6.2 8.83998C6.18 9.13998 6.17 9.44997 6.17 9.78997V10.07C6.17 10.67 6.25 11.28 6.42 11.88C6.64 12.66 6.44999 13.46 5.92999 13.98L2.60001 17.31C2.12001 17.79 2.12001 18.56 2.60001 19.04L3.94 20.38C4.18 20.62 4.49 20.74 4.8 20.74C5.11 20.74 5.43 20.62 5.66 20.38L8.99001 17.05C9.51 16.53 10.31 16.34 11.09 16.56C11.69 16.72 12.29 16.81 12.9 16.81H13.18C13.52 16.81 13.83 16.81 14.13 16.78C14.13 16.78 14.13 16.78 14.14 16.78C14.14 16.78 14.16 16.78 14.17 16.78L14.18 16.8ZM9.21001 6.38998L10.17 5.41998C11.3 4.28998 12.63 3.71997 13.99 3.75997C15.28 3.79997 16.56 4.38998 17.59 5.41998C18.62 6.44998 19.21 7.72998 19.25 9.01998C19.29 10.39 18.72 11.71 17.59 12.84L16.61 13.81C15.64 14.78 15.04 15.14 14.41 15.27L7.74001 8.59999C7.87001 7.96999 8.23 7.37997 9.2 6.39997L9.21001 6.38998ZM7.94 16.01L4.81 19.14L3.86999 18.2L7 15.07C7.9 14.17 8.23999 12.8 7.86999 11.51C7.78999 11.24 7.75 10.96 7.72 10.68L12.33 15.29C12.05 15.26 11.78 15.21 11.5 15.14C10.2 14.78 8.84 15.11 7.94 16.01Z" fill="currentColor"/>
</svg>

<svg xmlns="http://www.w3.org/2000/svg" width="24" height="24" fill="none"><path fill="currentColor" d="M19 16.25c-1.52 0-2.75 1.23-2.75 2.75s1.23 2.75 2.75 2.75 2.75-1.23 2.75-2.75-1.23-2.75-2.75-2.75Zm0 4a1.25 1.25 0 1 1 0-2.5 1.25 1.25 0 0 1 0 2.5Zm-4.82-3.45c1.09-.09 2.02-.47 3.49-1.94l.98-.97c1.43-1.43 2.15-3.13 2.1-4.93-.05-1.67-.8-3.31-2.1-4.62-1.3-1.3-2.94-2.05-4.62-2.1-1.81-.05-3.5.67-4.93 2.1l-.96.97C6.67 6.78 6.29 7.71 6.2 8.79v.05c-.02.3-.03.61-.03.95v.28c0 .6.08 1.21.25 1.81.22.78.03 1.58-.49 2.1L2.6 17.31a1.22 1.22 0 0 0 0 1.73l1.34 1.34c.24.24.55.36.86.36.31 0 .63-.12.86-.36l3.33-3.33c.52-.52 1.32-.71 2.1-.49.6.16 1.2.25 1.81.25h.28c.34 0 .65 0 .95-.03h.04l.01.02ZM9.21 6.39l.96-.97c1.13-1.13 2.46-1.7 3.82-1.66 1.29.04 2.57.63 3.6 1.66 1.03 1.03 1.62 2.31 1.66 3.6.04 1.37-.53 2.69-1.66 3.82l-.98.97c-.97.97-1.57 1.33-2.2 1.46L7.74 8.6c.13-.63.49-1.22 1.46-2.2l.01-.01Zm-1.27 9.62-3.13 3.13-.94-.94L7 15.07c.9-.9 1.24-2.27.87-3.56a4.66 4.66 0 0 1-.15-.83l4.61 4.61c-.28-.03-.55-.08-.83-.15-1.3-.36-2.66-.03-3.56.87Z"/></svg>
